svgs/solid/face-smile-halo.svg

<svg xmlns="http://www.w3.org/2000/svg" viewBox="0 0 512 512"><!--! Font Awesome Pro 6.2.0 by @fontawesome - https://fontawesome.com License - https://fontawesome.com/license (Commercial License) Copyright 2022 Fonticons, Inc. --><path d="M512 80c0 44.2-114.6 80-256 80S0 124.2 0 80S114.6 0 256 0S512 35.8 512 80zm-64 0c0-17.7-86-32-192-32S64 62.3 64 80s86 32 192 32s192-14.3 192-32zM16 272c0-41.9 10.7-81.3 29.6-115.5C98.1 178.3 173 192 256 192s157.9-13.7 210.4-35.5C485.3 190.7 496 230.1 496 272c0 132.5-107.5 240-240 240S16 404.5 16 272zm148.1 85.5c-5.8-6.7-15.9-7.4-22.6-1.6s-7.4 15.9-1.6 22.6c22.2 25.7 61 53.5 116.1 53.5s93.8-27.9 116.1-53.5c5.8-6.7 5.1-16.8-1.6-22.6s-16.8-5.1-22.6 1.6C330 378.2 299.4 400 256 400s-74-21.8-91.9-42.5zm53.5-56.7l0 0 0 0c2.1 2.8 5.7 3.9 8.9 2.8s5.5-4.1 5.5-7.6c0-17.9-6.7-35.6-16.6-48.8c-9.8-13-23.9-23.2-39.4-23.2s-29.6 10.2-39.4 23.2C126.7 260.4 120 278.1 120 296c0 3.4 2.2 6.5 5.5 7.6s6.9 0 8.9-2.8l0 0 0 0 0 0 .2-.2c.2-.2 .4-.5 .7-.9c.6-.8 1.6-2 2.8-3.4c2.5-2.8 6-6.6 10.2-10.3c8.8-7.8 18.8-14 27.7-14s18.9 6.2 27.7 14c4.2 3.7 7.7 7.5 10.2 10.3c1.2 1.4 2.2 2.6 2.8 3.4c.3 .4 .6 .7 .7 .9l.2 .2 0 0 0 0zm160 0l0 0 0 0 0 0c2.1 2.8 5.7 3.9 8.9 2.8s5.5-4.1 5.5-7.6c0-17.9-6.7-35.6-16.6-48.8c-9.8-13-23.9-23.2-39.4-23.2s-29.6 10.2-39.4 23.2C286.7 260.4 280 278.1 280 296c0 3.4 2.2 6.5 5.5 7.6s6.9 0 8.9-2.8l0 0 0 0 0 0 .2-.2c.2-.2 .4-.5 .7-.9c.6-.8 1.6-2 2.8-3.4c2.5-2.8 6-6.6 10.2-10.3c8.8-7.8 18.8-14 27.7-14s18.9 6.2 27.7 14c4.2 3.7 7.7 7.5 10.2 10.3c1.2 1.4 2.2 2.6 2.8 3.4c.3 .4 .6 .7 .7 .9l.2 .2 0 0z"/></svg>

<svg xmlns="http://www.w3.org/2000/svg" viewBox="0 0 512 512"><!--! Font Awesome Pro 6.1.2 by @fontawesome - https://fontawesome.com License - https://fontawesome.com/license (Commercial License) Copyright 2022 Fonticons, Inc. --><path d="M512 80C512 124.2 397.4 160 256 160C114.6 160 0 124.2 0 80C0 35.82 114.6 0 256 0C397.4 0 512 35.82 512 80zM256 48C149.1 48 64 62.33 64 80C64 97.67 149.1 112 256 112C362 112 448 97.67 448 80C448 62.33 362 48 256 48zM16 272C16 230.1 26.73 190.7 45.58 156.5C98.14 178.3 172.1 192 256 192C339 192 413.9 178.3 466.4 156.5C485.3 190.7 496 230.1 496 272C496 404.5 388.5 512 256 512C123.5 512 16 404.5 16 272zM164.1 357.5C158.3 350.8 148.2 350.1 141.5 355.9C134.8 361.7 134.1 371.8 139.9 378.5C162.1 404.1 200.9 432 255.1 432C311.1 432 349.8 404.1 372.1 378.5C377.9 371.8 377.2 361.7 370.5 355.9C363.8 350.1 353.7 350.8 347.9 357.5C329.9 378.2 299.4 400 255.1 400C212.6 400 182 378.2 164.1 357.5H164.1zM226.5 303.6C229.8 302.5 232 299.4 232 296C232 278.1 225.3 260.4 215.4 247.2C205.6 234.2 191.5 224 176 224C160.5 224 146.4 234.2 136.6 247.2C126.7 260.4 120 278.1 120 296C120 299.4 122.2 302.5 125.5 303.6C128.7 304.7 132.3 303.6 134.4 300.8L134.4 300.8L134.6 300.5C134.8 300.3 134.1 300 135.3 299.6C135.1 298.8 136.9 297.7 138.1 296.3C140.6 293.4 144.1 289.7 148.3 285.1C157.1 278.2 167.2 272 176 272C184.8 272 194.9 278.2 203.7 285.1C207.9 289.7 211.4 293.4 213.9 296.3C215.1 297.7 216 298.8 216.7 299.6C217 300 217.2 300.3 217.4 300.5L217.6 300.8L217.6 300.8C219.7 303.6 223.3 304.7 226.5 303.6V303.6zM377.6 300.8C379.7 303.6 383.3 304.7 386.5 303.6C389.8 302.5 392 299.4 392 296C392 278.1 385.3 260.4 375.4 247.2C365.6 234.2 351.5 224 336 224C320.5 224 306.4 234.2 296.6 247.2C286.7 260.4 280 278.1 280 296C280 299.4 282.2 302.5 285.5 303.6C288.7 304.7 292.3 303.6 294.4 300.8L294.4 300.8L294.6 300.5C294.8 300.3 294.1 300 295.3 299.6C295.1 298.8 296.9 297.7 298.1 296.3C300.6 293.4 304.1 289.7 308.3 285.1C317.1 278.2 327.2 272 336 272C344.8 272 354.9 278.2 363.7 285.1C367.9 289.7 371.4 293.4 373.9 296.3C375.1 297.7 376 298.8 376.7 299.6C377 300 377.2 300.3 377.4 300.5L377.6 300.8L377.6 300.8z"/></svg>
